icons/dsstore.svg

<svg width="16" height="16" viewBox="0 0 16 16" fill="none" xmlns="http://www.w3.org/2000/svg">
<path fill-rule="evenodd" clip-rule="evenodd" d="M7.66143 3H4C3.44772 3 3 3.44772 3 4V12C3 12.5523 3.44772 13 4 13H9.15454C9.00652 12.4851 8.88369 11.9346 8.77965 11.3153C6.88696 11.5991 5.37886 10.9434 4.68766 10.3904C4.47202 10.2179 4.43706 9.90328 4.60957 9.68765C4.78207 9.47202 5.09672 9.43706 5.31235 9.60957C5.80624 10.0047 7.03372 10.5667 8.63618 10.3247C8.58676 9.92757 8.5424 9.50271 8.50193 9.04393C8.4928 8.94033 8.46552 8.92885 8.45973 8.92641L8.45884 8.926C8.42311 8.90405 8.33353 8.875 8.15442 8.875C7.9832 8.875 7.79077 8.90049 7.58673 8.93174L7.51314 8.94319C7.34879 8.96898 7.15104 9 7 9C6.72386 9 6.5 8.77614 6.5 8.5C6.5 6.42176 7.01813 4.52456 7.66143 3ZM8.64726 3L8.73531 3.03985C8.12349 4.39159 7.60439 6.07965 7.51394 7.93142C7.70394 7.90338 7.93092 7.875 8.15442 7.875C8.40179 7.875 8.71295 7.90845 8.98237 8.074C9.28476 8.25981 9.46375 8.56698 9.49807 8.95607C9.53369 9.35999 9.57219 9.73439 9.61421 10.084C9.98095 9.95874 10.3613 9.78908 10.7519 9.56588C10.9917 9.42887 11.2971 9.51217 11.4341 9.75193C11.5711 9.99169 11.4878 10.2971 11.2481 10.4341C10.7367 10.7263 10.2374 10.9402 9.75597 11.0902C9.87611 11.8197 10.0206 12.4343 10.1988 13H12C12.5523 13 13 12.5523 13 12V4C13 3.44772 12.5523 3 12 3H8.64726ZM4 2C2.89543 2 2 2.89543 2 4V12C2 13.1046 2.89543 14 4 14H12C13.1046 14 14 13.1046 14 12V4C14 2.89543 13.1046 2 12 2H4ZM5.5 6C5.5 5.72386 5.27614 5.5 5 5.5C4.72386 5.5 4.5 5.72386 4.5 6V7C4.5 7.27614 4.72386 7.5 5 7.5C5.27614 7.5 5.5 7.27614 5.5 7V6ZM11 5.5C11.2761 5.5 11.5 5.72386 11.5 6V7C11.5 7.27614 11.2761 7.5 11 7.5C10.7239 7.5 10.5 7.27614 10.5 7V6C10.5 5.72386 10.7239 5.5 11 5.5Z" fill="#B4B4B4"/>
</svg>

<svg xmlns="http://www.w3.org/2000/svg" width="16" height="16" fill="none"><path fill="#B4B4B4" fill-rule="evenodd" d="M7.661 3H4a1 1 0 0 0-1 1v8a1 1 0 0 0 1 1h5.155a15.122 15.122 0 0 1-.375-1.685c-1.893.284-3.401-.372-4.092-.925a.5.5 0 1 1 .624-.78c.494.395 1.722.957 3.324.715-.05-.397-.094-.822-.134-1.281-.01-.104-.036-.115-.042-.118h-.001c-.036-.022-.125-.051-.305-.051-.17 0-.363.025-.567.057l-.074.011A3.679 3.679 0 0 1 7 9a.5.5 0 0 1-.5-.5c0-2.078.518-3.975 1.161-5.5Zm.986 0 .088.04c-.612 1.352-1.13 3.04-1.221 4.891.19-.028.417-.056.64-.056.248 0 .559.033.828.199.303.186.482.493.516.882.036.404.074.778.116 1.128a6.58 6.58 0 0 0 1.138-.518.5.5 0 0 1 .496.868 7.51 7.51 0 0 1-1.492.656c.12.73.265 1.344.443 1.91H12a1 1 0 0 0 1-1V4a1 1 0 0 0-1-1H8.647ZM4 2a2 2 0 0 0-2 2v8a2 2 0 0 0 2 2h8a2 2 0 0 0 2-2V4a2 2 0 0 0-2-2H4Zm1.5 4a.5.5 0 0 0-1 0v1a.5.5 0 0 0 1 0V6Zm5.5-.5a.5.5 0 0 1 .5.5v1a.5.5 0 0 1-1 0V6a.5.5 0 0 1 .5-.5Z" clip-rule="evenodd"/></svg>
